common/src/main/resources/files/plugins/python/buildout/buildout.svg

<svg xmlns="http://www.w3.org/2000/svg" width="16" height="16" data-big="true" viewBox="0 0 24 24"><path fill="#FFB74D" d="M12 15c-4.42 0-8 1.79-8 4v2h16v-2c0-2.21-3.58-4-8-4M8 9a4 4 0 0 0 4 4 4 4 0 0 0 4-4m-4.5-7c-.3 0-.5.21-.5.5v3h-1V3s-2.25.86-2.25 3.75c0 0-.75.14-.75 1.25h10c-.05-1.11-.75-1.25-.75-1.25C16.25 3.86 14 3 14 3v2.5h-1v-3c0-.29-.19-.5-.5-.5z"/></svg>

<!--
  - The MIT License (MIT)
  -
  - Copyright (c) 2015-2024 Elior "Mallowigi" Boukhobza
  -
  - Permission is hereby granted, free of charge, to any person obtaining a copy
  - of this software and associated documentation files (the "Software"), to deal
  - in the Software without restriction, including without limitation the rights
  - to use, copy, modify, merge, publish, distribute, sublicense, and/or sell
  - copies of the Software, and to permit persons to whom the Software is
  - furnished to do so, subject to the following conditions:
  -
  - The above copyright notice and this permission notice shall be included in all
  - copies or substantial portions of the Software.
  -
  - THE SOFTWARE IS PROVIDED "AS IS", WITHOUT WARRANTY OF ANY KIND, EXPRESS OR
  - IMPLIED, INCLUDING BUT NOT LIMITED TO THE WARRANTIES OF MERCHANTABILITY,
  - FITNESS FOR A PARTICULAR PURPOSE AND NONINFRINGEMENT. IN NO EVENT SHALL THE
  - AUTHORS OR COPYRIGHT HOLDERS BE LIABLE FOR ANY CLAIM, DAMAGES OR OTHER
  - LIABILITY, WHETHER IN AN ACTION OF CONTRACT, TORT OR OTHERWISE, ARISING FROM,
  - OUT OF OR IN CONNECTION WITH THE SOFTWARE OR THE USE OR OTHER DEALINGS IN THE
  - SOFTWARE.
  -->

<svg data-big="true" xmlns="http://www.w3.org/2000/svg" version="1.1" width="16px" height="16px" viewBox="0 0 24 24">
  <path fill="#FFB74D"
        d="M12,15C7.58,15 4,16.79 4,19V21H20V19C20,16.79 16.42,15 12,15M8,9A4,4 0 0,0 12,13A4,4 0 0,0 16,9M11.5,2C11.2,2 11,2.21 11,2.5V5.5H10V3C10,3 7.75,3.86 7.75,6.75C7.75,6.75 7,6.89 7,8H17C16.95,6.89 16.25,6.75 16.25,6.75C16.25,3.86 14,3 14,3V5.5H13V2.5C13,2.21 12.81,2 12.5,2H11.5Z"/>
</svg>
